src/assets/Imgs/dark/vault/chain.svg

<svg width="54" height="54" viewBox="0 0 54 54" fill="none" xmlns="http://www.w3.org/2000/svg">
<g id="chain">
<rect id="Rectangle 1288" width="54" height="54" rx="16" fill="url(#paint0_linear_188_1560)"/>
<g id="Multi-Signer">
<g id="vuesax/bold/hierarchy-square">
<g id="hierarchy-square">
<path id="Vector" d="M33.285 12.0001H20.715C15.255 12.0001 12 15.2551 12 20.7151V33.2701C12 38.7451 15.255 42.0001 20.715 42.0001H33.27C38.73 42.0001 41.985 38.7451 41.985 33.2851V20.7151C42 15.2551 38.745 12.0001 33.285 12.0001ZM23.775 33.6751C23.775 35.3701 22.395 36.7501 20.7 36.7501C19.005 36.7501 17.625 35.3701 17.625 33.6751C17.625 32.3701 18.435 31.2751 19.575 30.8251V24.3901C18.315 23.9251 17.4 22.7251 17.4 21.3001C17.4 19.4851 18.885 18.0001 20.7 18.0001C22.515 18.0001 24 19.4851 24 21.3001C24 22.7251 23.085 23.9251 21.825 24.3901V30.8251C22.965 31.2751 23.775 32.3851 23.775 33.6751ZM34.125 36.7501C32.43 36.7501 31.05 35.3701 31.05 33.6751C31.05 32.3701 31.86 31.2751 33 30.8251V22.1251C33 21.9151 32.835 21.7501 32.625 21.7501H30.93L31.245 22.0051C31.725 22.4101 31.785 23.1151 31.395 23.5951C31.17 23.8651 30.84 24.0001 30.525 24.0001C30.27 24.0001 30.015 23.9101 29.805 23.7451L27.105 21.4951C26.85 21.2701 26.7 20.9551 26.7 20.6251C26.7 20.2951 26.85 19.9801 27.105 19.7551L29.805 17.5051C30.285 17.1151 30.99 17.1751 31.395 17.6551C31.8 18.1351 31.725 18.8401 31.245 19.2451L30.93 19.5001H32.625C34.065 19.5001 35.25 20.6851 35.25 22.1251V30.8251C36.39 31.2751 37.2 32.3851 37.2 33.6751C37.2 35.3701 35.82 36.7501 34.125 36.7501Z" fill="url(#paint1_linear_188_1560)"/>
</g>
</g>
</g>
</g>
<defs>
<linearGradient id="paint0_linear_188_1560" x1="27" y1="0" x2="27" y2="145.5" gradientUnits="userSpaceOnUse">
<stop stop-color="#FF9A03" stop-opacity="0.3"/>
<stop offset="1" stop-color="#5200FF" stop-opacity="0.3"/>
</linearGradient>
<linearGradient id="paint1_linear_188_1560" x1="26.9925" y1="24.1876" x2="26.9925" y2="44.8126" gradientUnits="userSpaceOnUse">
<stop stop-color="#FFA370"/>
<stop offset="1" stop-color="#FFA370"/>
</linearGradient>
</defs>
</svg>

<svg fill="none" height="54" viewBox="0 0 54 54" width="54" xmlns="http://www.w3.org/2000/svg" xmlns:xlink="http://www.w3.org/1999/xlink"><linearGradient id="a" gradientUnits="userSpaceOnUse" x1="27" x2="27" y1="0" y2="145.5"><stop offset="0" stop-color="#ff9a03" stop-opacity=".3"/><stop offset="1" stop-color="#5200ff" stop-opacity=".3"/></linearGradient><linearGradient id="b" gradientUnits="userSpaceOnUse" x1="26.9925" x2="26.9925" y1="24.1876" y2="44.8126"><stop offset="0" stop-color="#ffa370"/><stop offset="1" stop-color="#ffa370"/></linearGradient><rect fill="url(#a)" height="54" rx="16" width="54"/><path d="m33.285 12.0001h-12.57c-5.46 0-8.715 3.255-8.715 8.715v12.555c0 5.475 3.255 8.73 8.715 8.73h12.555c5.46 0 8.715-3.255 8.715-8.715v-12.57c.015-5.46-3.24-8.715-8.7-8.715zm-9.51 21.675c0 1.695-1.38 3.075-3.075 3.075s-3.075-1.38-3.075-3.075c0-1.305.81-2.4 1.95-2.85v-6.435c-1.26-.465-2.175-1.665-2.175-3.09 0-1.815 1.485-3.3 3.3-3.3s3.3 1.485 3.3 3.3c0 1.425-.915 2.625-2.175 3.09v6.435c1.14.45 1.95 1.56 1.95 2.85zm10.35 3.075c-1.695 0-3.075-1.38-3.075-3.075 0-1.305.81-2.4 1.95-2.85v-8.7c0-.21-.165-.375-.375-.375h-1.695l.315.255c.48.405.54 1.11.15 1.59-.225.27-.555.405-.87.405-.255 0-.51-.09-.72-.255l-2.7-2.25c-.255-.225-.405-.54-.405-.87s.15-.645.405-.87l2.7-2.25c.48-.39 1.185-.33 1.59.15s.33 1.185-.15 1.59l-.315.255h1.695c1.44 0 2.625 1.185 2.625 2.625v8.7c1.14.45 1.95 1.56 1.95 2.85 0 1.695-1.38 3.075-3.075 3.075z" fill="url(#b)"/></svg>
